X:1
T: Captain Maitland's
C:Nathaniel Gow
R:Strathspey
Q: 128
K:G
M:4/4
L:1/16
|:D2|GG3 B3G c3A F2D2|GG3 b3G d2G2 B2G2|ca3 Bg3 A2D2 F2D2|GG3 B3A G4 G2D2|
GG3 B3G c3A F2D2|GG3 b3G d2G2 B2G2|ca3 Bg3 A2D2 F2D2|GG3 B3A G4 G2Bc|
d2g2 B2g2 A2D2 F2D2|d2g2 B2g2 d2g2 B2g2|c2a2 B2g2 A2D2 F2D2|GG3 B3A G4 G2Bc|
d2g2 B2g2 A2D2 F2D2|d2g2 B2g2 d2g2 B2g2|c2a2 B2g2 A2D2 F2D2|GG3 B3A G4 G2:|
